lib/illus/rocket.svg

<svg width="180" height="124" viewBox="0 0 180 124" fill="none" xmlns="http://www.w3.org/2000/svg">
<g clip-path="url(#clip0_23522_105263)">
<path d="M0.019696 15.1679C7.44645 47.5874 25.2628 70.0925 57.7449 82.9398L57.7252 103.203C68.4505 115.162 76.8254 118.559 92.2319 124.01L98.3057 103.342C106.71 103.233 108.715 100.024 114.394 90.8892C114.897 90.0794 115.401 89.2697 115.895 88.4599C119.026 83.3546 120.309 77.2123 118.423 71.5244C103.945 27.8276 39.7113 -6.06328 0.296224 14.7038C0.177712 14.6347 -0.079064 15.0593 0.019696 15.1679Z" fill="var(--athens,#F7F8FB)"/>
<path d="M52.6292 46.9358C60.2708 46.9358 66.4655 40.7417 66.4655 33.1009C66.4655 25.4602 60.2708 19.2661 52.6292 19.2661C44.9877 19.2661 38.793 25.4602 38.793 33.1009C38.793 40.7417 44.9877 46.9358 52.6292 46.9358Z" stroke="var(--waterloo,#7A859E)" stroke-width="1.5"/>
<path fill-rule="evenodd" clip-rule="evenodd" d="M90.3565 22.3938L108.075 13.0177L108.354 13.0877C116.214 15.0598 121.916 17.5209 127.171 20.8991C132.411 24.2671 137.187 28.5343 143.187 34.0705L143.769 34.6073L128.149 49.7963C129.911 53.3914 130.379 56.1511 129.68 59.1556C128.978 62.1748 127.099 65.3913 124.454 69.9186L124.374 70.056C122.326 73.5577 120.249 77.0003 118.102 80.4523L118.033 80.5628C115.255 85.0264 113.283 88.1962 110.934 90.2303C108.602 92.2504 105.942 93.1255 101.942 93.2467L95.7998 114.148L95.0532 113.884C87.3552 111.16 81.3508 108.929 75.9259 105.867C70.4846 102.796 65.6472 98.902 60.2383 92.8711L60.0464 92.6571L60.0659 72.6159C44.0115 66.2147 32.865 59.1329 24.1096 48.713C15.2945 38.2219 8.95335 24.405 2.40708 4.65492C2.27715 4.39978 2.31831 4.14383 2.33509 4.05995C2.36714 3.89968 2.43312 3.75775 2.49746 3.65054C2.56049 3.5455 2.657 3.41528 2.79152 3.30952C2.85193 3.26203 3.07297 3.10276 3.3637 3.11131C23.8713 -0.31283 39.043 -1.15062 52.43 1.74813C65.7331 4.62873 77.2001 11.1823 90.3565 22.3938ZM3.94762 4.53458C10.4352 24.0443 16.6811 37.5406 25.2581 47.7482C33.8849 58.0151 44.92 65.0132 61.0923 71.4097L61.5669 71.5974L61.547 92.0831C66.7851 97.8886 71.4478 101.617 76.6633 104.561C81.7865 107.453 87.4628 109.599 94.8072 112.206L100.814 91.766L101.367 91.7588C105.459 91.7059 107.867 90.9024 109.952 89.0966C112.108 87.2295 113.964 84.2629 116.828 79.6601C118.968 76.2195 121.038 72.7889 123.079 69.2992C125.814 64.6167 127.573 61.5922 128.219 58.8157C128.844 56.1308 128.431 53.6276 126.565 49.9832L126.312 49.49L141.588 34.6362C135.856 29.3582 131.309 25.3415 126.36 22.1607C121.323 18.9227 115.848 16.5389 108.268 14.6127L90.1564 24.1966L89.7687 23.8644C76.5614 12.5464 65.2204 6.05232 52.1125 3.21399C39.0812 0.39226 24.2297 1.16671 3.94762 4.53458Z" fill="var(--waterloo,#7A859E)"/>
<path d="M159.567 121.334L170.884 117.502L169.897 109.049C167.596 89.408 151.034 74.5462 131.262 74.3783C130.047 74.3684 128.921 75.0004 128.289 76.0274L113.268 100.705C112.606 101.791 112.596 103.164 113.248 104.26C122.719 120.149 142.027 127.278 159.567 121.334Z" fill="var(--orange-light-2,#FFE7CA)"/>
<path fill-rule="evenodd" clip-rule="evenodd" d="M136.862 66.037C136.866 65.6229 137.205 65.2901 137.619 65.2939C158.884 65.4849 176.701 81.4699 179.175 102.593L180.005 109.713L170.079 113.077C151.058 119.531 130.127 111.801 119.843 94.5517C119.631 94.1959 119.747 93.7356 120.103 93.5235C120.459 93.3114 120.919 93.4279 121.131 93.7837C131.054 110.426 151.247 117.883 169.597 111.657L178.375 108.682L177.685 102.767C177.685 102.767 177.685 102.767 177.685 102.767C175.299 82.3954 158.115 66.9779 137.605 66.7936C137.191 66.7899 136.858 66.4512 136.862 66.037Z" fill="var(--orange,#FFAD4D)"/>
</g>
<defs>
<clipPath id="clip0_23522_105263">
<rect width="180" height="124" fill="white"/>
</clipPath>
</defs>
</svg>

<svg width="180" height="124" fill="none" xmlns="http://www.w3.org/2000/svg"><g clip-path="url(#a)"><path d="M.02 15.168c7.426 32.42 25.243 54.924 57.725 67.772l-.02 20.263c10.726 11.959 19.1 15.356 34.507 20.807l6.074-20.668c8.404-.109 10.409-3.318 16.088-12.453.503-.81 1.007-1.62 1.501-2.43 3.131-5.104 4.414-11.247 2.528-16.935C103.945 27.828 39.711-6.063.296 14.704c-.118-.07-.375.355-.276.464Z" fill="var(--athens,#F7F8FB)"/><path d="M52.63 46.936c7.64 0 13.836-6.194 13.836-13.835 0-7.64-6.195-13.835-13.837-13.835-7.641 0-13.836 6.194-13.836 13.835 0 7.64 6.195 13.835 13.836 13.835Z" stroke="var(--waterloo,#7A859E)" stroke-width="1.5"/><path fill-rule="evenodd" clip-rule="evenodd" d="m90.356 22.394 17.719-9.376.279.07c7.86 1.972 13.562 4.433 18.817 7.811 5.24 3.368 10.016 7.635 16.016 13.172l.582.536-15.62 15.19c1.762 3.594 2.23 6.354 1.531 9.359-.702 3.019-2.581 6.235-5.226 10.763l-.08.137a444.964 444.964 0 0 1-6.272 10.396l-.069.11c-2.778 4.464-4.75 7.634-7.099 9.668-2.332 2.02-4.992 2.895-8.992 3.017L95.8 114.148l-.747-.264c-7.698-2.724-13.702-4.955-19.127-8.017-5.441-3.071-10.279-6.965-15.688-12.996l-.192-.214.02-20.041C44.01 66.215 32.865 59.133 24.11 48.713 15.294 38.222 8.953 24.405 2.407 4.655a.93.93 0 0 1-.072-.595c.032-.16.098-.302.162-.41.063-.104.16-.235.295-.34a.921.921 0 0 1 .572-.199C23.87-.313 39.043-1.15 52.43 1.748c13.303 2.88 24.77 9.434 37.926 20.646ZM3.948 4.534c6.487 19.51 12.733 33.007 21.31 43.214C33.885 58.015 44.92 65.013 61.092 71.41l.475.187-.02 20.486c5.238 5.806 9.9 9.534 15.116 12.478 5.124 2.892 10.8 5.038 18.144 7.645l6.007-20.44.553-.007c4.092-.053 6.5-.857 8.585-2.662 2.156-1.867 4.012-4.834 6.876-9.437 2.14-3.44 4.21-6.871 6.251-10.36 2.735-4.683 4.494-7.708 5.14-10.484.625-2.685.212-5.188-1.654-8.833l-.253-.493 15.276-14.854c-5.732-5.278-10.279-9.295-15.228-12.475-5.037-3.238-10.512-5.622-18.092-7.548l-18.112 9.584-.387-.333C76.56 12.546 65.22 6.052 52.112 3.214 39.082.392 24.23 1.167 3.948 4.534Z" fill="var(--waterloo,#7A859E)"/><path d="m159.567 121.334 11.317-3.832-.987-8.453c-2.301-19.641-18.863-34.503-38.635-34.67a3.462 3.462 0 0 0-2.973 1.648l-15.021 24.678a3.452 3.452 0 0 0-.02 3.555c9.471 15.889 28.779 23.018 46.319 17.074Z" fill="var(--orange-light-2,#FFE7CA)"/><path fill-rule="evenodd" clip-rule="evenodd" d="M136.862 66.037a.75.75 0 0 1 .757-.743c21.265.19 39.082 16.176 41.556 37.299l.83 7.12-9.926 3.364c-19.021 6.454-39.952-1.276-50.236-18.525a.75.75 0 1 1 1.288-.768c9.923 16.642 30.116 24.099 48.466 17.873l8.778-2.975-.69-5.915c-2.386-20.372-19.57-35.79-40.08-35.973a.75.75 0 0 1-.743-.757Z" fill="var(--orange,#FFAD4D)"/></g><defs><clipPath id="a"><path fill="#fff" d="M0 0h180v124H0z"/></clipPath></defs></svg>
